;START_OF_HEADER
;HEADER_VERSION:0.1
;FLAVOR:Griffin
;GENERATOR.NAME:Cura_SteamEngine
;GENERATOR.VERSION:5.2.1
;GENERATOR.BUILD_DATE:2022-10-19
;TARGET_MACHINE.NAME:Ultimaker 3 Extended
;EXTRUDER_TRAIN.0.INITIAL_TEMPERATURE:205
;EXTRUDER_TRAIN.0.MATERIAL.VOLUME_USED:32056
;EXTRUDER_TRAIN.0.MATERIAL.GUID:506c9f0d-e3aa-4bd4-b2d2-23e2425b1aa9
;EXTRUDER_TRAIN.0.NOZZLE.DIAMETER:0.4
;EXTRUDER_TRAIN.0.NOZZLE.NAME:AA 0.4
;BUILD_PLATE.INITIAL_TEMPERATURE:60
;PRINT.TIME:15386
;PRINT.GROUPS:1
;PRINT.SIZE.MIN.X:9
;PRINT.SIZE.MIN.Y:6
;PRINT.SIZE.MIN.Z:0.27
;PRINT.SIZE.MAX.X:177.995
;PRINT.SIZE.MAX.Y:168.795
;PRINT.SIZE.MAX.Z:20.07
;SLICE_UUID:d30adfed-cbd8-405e-9235-8c2effc763b1
;END_OF_HEADER
;Generated with Cura_SteamEngine 5.2.1
T0
M82 ;absolute extrusion mode

G92 E0
M109 S205
G0 F15000 X9 Y6 Z2
G280
G1 F1500 E-6.5
;LAYER_COUNT:133
;LAYER:0
M107
M204 S1000
M205 X20 Y20
G0 F3750 X71.889 Y65.339 Z0.27
;TYPE:SKIRT
G1 F1500 E0
G1 F1200 X77.862 Y59.796 E0.16554
G1 X78.677 Y59.147 E0.18671
G1 X85.405 Y54.562 E0.35211
G1 X86.303 Y54.043 E0.37318
G1 X93.641 Y50.508 E0.53865
G1 X94.611 Y50.127 E0.55983
G1 X102.389 Y47.728 E0.72518
G1 X103.403 Y47.497 E0.74631
G1 X111.461 Y46.283 E0.91186
G1 X112.498 Y46.205 E0.93299
G1 X120.637 Y46.205 E1.09833
G1 X121.674 Y46.283 E1.11946
G1 X129.732 Y47.497 E1.28501
G1 X130.747 Y47.728 E1.30616
G1 X138.524 Y50.128 E1.4715
G1 X139.492 Y50.508 E1.49263
G1 X146.83 Y54.042 E1.65809
G1 X147.729 Y54.562 E1.67919
G1 X154.457 Y59.147 E1.84459
G1 X155.272 Y59.796 E1.86576
G1 X161.244 Y65.337 E2.03126
G1 X161.952 Y66.1 E2.05241
G1 X167.029 Y72.468 E2.21786
G1 X167.614 Y73.327 E2.23897
G1 X171.685 Y80.378 E2.40438
G1 X172.137 Y81.315 E2.42551
G1 X175.113 Y88.896 E2.59096
G1 X175.419 Y89.89 E2.61209
G1 X177.231 Y97.826 E2.77746
G1 X177.387 Y98.856 E2.79863
G1 X177.995 Y106.979 E2.96411
G1 X177.995 Y108.017 E2.9852
G1 X177.387 Y116.142 E3.15072
G1 X177.231 Y117.173 E3.17191
G1 X175.418 Y125.111 E3.33732
G1 X175.112 Y126.104 E3.35843
G1 X172.137 Y133.685 E3.52388
G1 X171.686 Y134.622 E3.545
G1 X167.616 Y141.672 E3.71038
G1 X167.03 Y142.531 E3.73151
G1 X161.954 Y148.898 E3.89693
G1 X161.246 Y149.661 E3.91807
G1 X155.272 Y155.204 E4.08363
G1 X154.457 Y155.853 E4.1048
G1 X147.729 Y160.438 E4.2702
G1 X146.831 Y160.957 E4.29127
G1 X139.493 Y164.492 E4.45674
G1 X138.524 Y164.873 E4.4779
G1 X130.747 Y167.272 E4.64324
G1 X129.732 Y167.503 E4.66438
G1 X121.674 Y168.717 E4.82993
G1 X120.637 Y168.795 E4.85106
G1 X112.498 Y168.795 E5.01641
G1 X111.461 Y168.717 E5.03753
G1 X103.403 Y167.503 E5.20308
G1 X102.388 Y167.272 E5.22423
G1 X94.61 Y164.872 E5.38959
G1 X93.642 Y164.492 E5.41072
G1 X86.304 Y160.958 E5.57618
G1 X85.405 Y160.438 E5.59728
G1 X78.677 Y155.853 E5.76268
G1 X77.862 Y155.204 E5.78385
G1 X71.889 Y149.661 E5.94939
G1 X71.181 Y148.898 E5.97054
G1 X66.104 Y142.531 E6.13597
G1 X65.518 Y141.672 E6.1571
G1 X61.448 Y134.622 E6.32248
G1 X60.997 Y133.685 E6.3436
G1 X58.022 Y126.104 E6.50905
G1 X57.716 Y125.11 E6.53018
G1 X55.904 Y117.172 E6.69559
G1 X55.748 Y116.143 E6.71673
G1 X55.139 Y108.022 E6.88218
G1 X55.139 Y106.982 E6.9033
G1 X55.748 Y98.857 E7.06883
G1 X55.904 Y97.827 E7.08999
G1 X57.717 Y89.889 E7.25541
G1 X58.023 Y88.897 E7.2765
G1 X60.997 Y81.316 E7.44194
G1 X61.448 Y80.378 E7.46308
G1 X65.518 Y73.328 E7.62846
G1 X66.104 Y72.469 E7.64958
G1 X71.181 Y66.102 E7.81502
G1 X71.889 Y65.339 E7.83617
G0 F3750 X72.215 Y65.691
G1 F1200 X78.188 Y60.148 E8.00171
G1 X78.947 Y59.543 E8.02143
G1 X85.675 Y54.958 E8.18683
G1 X86.512 Y54.475 E8.20646
G1 X93.85 Y50.94 E8.37193
G1 X94.752 Y50.586 E8.39162
G1 X102.53 Y48.187 E8.55698
G1 X103.475 Y47.971 E8.57667
G1 X111.533 Y46.757 E8.74222
G1 X112.498 Y46.685 E8.76188
G1 X120.637 Y46.685 E8.92723
G1 X121.602 Y46.757 E8.94689
G1 X129.66 Y47.971 E9.11243
G1 X130.606 Y48.187 E9.13215
G1 X138.383 Y50.587 E9.29749
G1 X139.284 Y50.941 E9.31716
G1 X146.622 Y54.475 E9.48262
G1 X147.459 Y54.958 E9.50225
G1 X154.187 Y59.543 E9.66766
G1 X154.945 Y60.148 E9.68736
G1 X160.917 Y65.689 E9.85286
G1 X161.577 Y66.399 E9.87255
G1 X166.654 Y72.767 E10.03801
G1 X167.199 Y73.567 E10.05767
G1 X171.27 Y80.618 E10.22308
G1 X171.69 Y81.49 E10.24274
G1 X174.666 Y89.071 E10.40819
G1 X174.951 Y89.997 E10.42787
G1 X176.763 Y97.933 E10.59325
G1 X176.908 Y98.891 E10.61293
G1 X177.516 Y107.014 E10.77841
G1 X177.516 Y107.982 E10.79808
G1 X176.908 Y116.107 E10.9636
G1 X176.763 Y117.066 E10.98331
G1 X174.95 Y125.004 E11.14872
G1 X174.665 Y125.928 E11.16837
G1 X171.69 Y133.509 E11.33381
G1 X171.27 Y134.382 E11.35349
G1 X167.2 Y141.432 E11.51887
G1 X166.655 Y142.231 E11.53852
G1 X161.579 Y148.598 E11.70394
G1 X160.919 Y149.309 E11.72365
G1 X154.945 Y154.852 E11.88921
G1 X154.187 Y155.457 E11.90891
G1 X147.459 Y160.042 E12.07432
G1 X146.622 Y160.525 E12.09395
G1 X139.284 Y164.06 E12.25942
G1 X138.382 Y164.414 E12.2791
G1 X130.605 Y166.813 E12.44444
G1 X129.66 Y167.029 E12.46414
G1 X121.602 Y168.243 E12.62969
G1 X120.637 Y168.315 E12.64934
G1 X112.498 Y168.315 E12.81469
G1 X111.533 Y168.243 E12.83435
G1 X103.475 Y167.029 E12.9999
G1 X102.529 Y166.813 E13.01961
G1 X94.751 Y164.413 E13.18498
G1 X93.85 Y164.059 E13.20464
G1 X86.512 Y160.525 E13.3701
G1 X85.675 Y160.042 E13.38974
G1 X78.947 Y155.457 E13.55514
G1 X78.188 Y154.852 E13.57486
G1 X72.215 Y149.309 E13.7404
G1 X71.557 Y148.599 E13.76007
G1 X66.48 Y142.232 E13.9255
G1 X65.934 Y141.432 E13.94518
G1 X61.864 Y134.382 E14.11056
G1 X61.444 Y133.509 E14.13024
G1 X58.469 Y125.928 E14.29568
G1 X58.184 Y125.003 E14.31535
G1 X56.372 Y117.065 E14.48076
G1 X56.227 Y116.108 E14.50042
G1 X55.618 Y107.987 E14.66587
G1 X55.618 Y107.018 E14.68555
G1 X56.227 Y98.893 E14.85108
G1 X56.372 Y97.934 E14.87078
G1 X58.185 Y89.996 E15.0362
G1 X58.47 Y89.073 E15.05582
G1 X61.444 Y81.492 E15.22126
G1 X61.864 Y80.618 E15.24096
G1 X65.934 Y73.568 E15.40634
G1 X66.48 Y72.768 E15.42602
G1 X71.557 Y66.401 E15.59145
G1 X72.215 Y65.691 E15.61112
G0 F3750 X72.542 Y66.043
G1 F1200 X78.515 Y60.5 E15.77666
G1 X79.217 Y59.94 E15.79491
G1 X85.945 Y55.355 E15.96031
G1 X86.72 Y54.908 E15.97848
G1 X94.058 Y51.373 E16.14395
G1 X94.894 Y51.045 E16.1622
G1 X102.672 Y48.646 E16.32756
G1 X103.546 Y48.446 E16.34577
G1 X111.604 Y47.232 E16.51132
G1 X112.498 Y47.165 E16.52953
G1 X120.637 Y47.165 E16.69488
G1 X121.531 Y47.232 E16.71309
G1 X129.589 Y48.446 E16.87864
G1 X130.464 Y48.646 E16.89688
G1 X138.241 Y51.046 E17.06222
G1 X139.075 Y51.373 E17.08042
G1 X146.413 Y54.907 E17.24588
G1 X147.189 Y55.355 E17.26409
G1 X153.917 Y59.94 E17.42949
G1 X154.619 Y60.5 E17.44773
G1 X160.591 Y66.041 E17.61323
G1 X161.201 Y66.699 E17.63146
G1 X166.278 Y73.067 E17.79691
G1 X166.783 Y73.807 E17.81511
G1 X170.854 Y80.858 E17.98052
G1 X171.243 Y81.666 E17.99874
G1 X174.219 Y89.247 E18.16419
G1 X174.483 Y90.103 E18.18239
G1 X176.295 Y98.039 E18.34776
G1 X176.429 Y98.927 E18.36601
G1 X177.037 Y107.05 E18.53149
G1 X177.037 Y107.946 E18.54969
G1 X176.429 Y116.071 E18.71522
G1 X176.295 Y116.959 E18.73346
G1 X174.482 Y124.897 E18.89888
G1 X174.218 Y125.753 E18.91707
G1 X171.243 Y133.334 E19.08252
G1 X170.854 Y134.142 E19.10074
G1 X166.784 Y141.192 E19.26612
G1 X166.28 Y141.932 E19.2843
G1 X161.204 Y148.299 E19.44973
G1 X160.593 Y148.957 E19.46797
G1 X154.619 Y154.5 E19.63353
G1 X153.917 Y155.06 E19.65177
G1 X147.189 Y159.645 E19.81717
G1 X146.414 Y160.092 E19.83535
G1 X139.076 Y163.627 E20.00082
G1 X138.241 Y163.955 E20.01905
G1 X130.464 Y166.354 E20.18439
G1 X129.589 Y166.554 E20.20262
G1 X121.531 Y167.768 E20.36817
G1 X120.637 Y167.835 E20.38638
G1 X112.498 Y167.835 E20.55173
G1 X111.604 Y167.768 E20.56994
G1 X103.546 Y166.554 E20.73549
G1 X102.671 Y166.354 E20.75372
G1 X94.893 Y163.954 E20.91909
G1 X94.059 Y163.627 E20.93729
G1 X86.721 Y160.093 E21.10275
G1 X85.945 Y159.645 E21.12095
G1 X79.217 Y155.06 E21.28636
G1 X78.515 Y154.5 E21.3046
G1 X72.542 Y148.957 E21.47014
G1 X71.932 Y148.3 E21.48836
G1 X66.855 Y141.933 E21.65379
G1 X66.35 Y141.192 E21.67201
G1 X62.28 Y134.142 E21.83739
G1 X61.891 Y133.334 E21.85561
G1 X58.916 Y125.753 E22.02105
G1 X58.651 Y124.896 E22.03927
G1 X56.839 Y116.958 E22.20469
G1 X56.706 Y116.072 E22.22289
G1 X56.097 Y107.951 E22.38833
G1 X56.097 Y107.054 E22.40656
G1 X56.706 Y98.929 E22.57208
G1 X56.84 Y98.041 E22.59033
G1 X58.653 Y90.103 E22.75574
G1 X58.916 Y89.248 E22.77391
G1 X61.89 Y81.667 E22.93935
G1 X62.28 Y80.858 E22.9576
G1 X66.35 Y73.808 E23.12297
G1 X66.855 Y73.067 E23.14119
G1 X71.932 Y66.7 E23.30663
G1 X72.542 Y66.043 E23.32484
G0 F3750 X72.868 Y66.395
G1 F1200 X78.841 Y60.852 E23.49039
G1 X79.487 Y60.337 E23.50717
G1 X86.215 Y55.752 E23.67257
G1 X86.928 Y55.34 E23.6893
G1 X94.266 Y51.805 E23.85477
G1 X95.035 Y51.503 E23.87156
G1 X102.813 Y49.104 E24.03692
G1 X103.618 Y48.921 E24.05369
G1 X111.676 Y47.707 E24.21924
G1 X112.498 Y47.645 E24.23598
G1 X120.637 Y47.645 E24.40133
G1 X121.459 Y47.707 E24.41808
G1 X129.517 Y48.921 E24.58362
G1 X130.323 Y49.104 E24.60042
G1 X138.1 Y51.504 E24.76576
G1 X138.867 Y51.806 E24.78251
G1 X146.205 Y55.34 E24.94797
G1 X146.919 Y55.752 E24.96472
G1 X153.647 Y60.337 E25.13012
G1 X154.292 Y60.851 E25.14687
G1 X160.264 Y66.392 E25.31238
G1 X160.826 Y66.998 E25.32917
G1 X165.903 Y73.366 E25.49462
G1 X166.367 Y74.047 E25.51136
G1 X170.438 Y81.098 E25.67676
G1 X170.796 Y81.841 E25.69352
G1 X173.772 Y89.422 E25.85897
G1 X174.016 Y90.21 E25.87573
G1 X175.828 Y98.146 E26.0411
G1 X175.951 Y98.963 E26.05789
G1 X176.559 Y107.086 E26.22337
G1 X176.559 Y107.91 E26.24011
G1 X175.951 Y116.035 E26.40563
G1 X175.827 Y116.852 E26.42242
G1 X174.014 Y124.79 E26.58784
G1 X173.771 Y125.577 E26.60457
G1 X170.796 Y133.158 E26.77002
G1 X170.439 Y133.902 E26.78678
G1 X166.369 Y140.952 E26.95216
G1 X165.904 Y141.633 E26.96891
G1 X160.828 Y148 E27.13433
G1 X160.267 Y148.605 E27.1511
G1 X154.293 Y154.148 E27.31666
G1 X153.647 Y154.663 E27.33344
G1 X146.919 Y159.248 E27.49884
G1 X146.206 Y159.66 E27.51557
G1 X138.868 Y163.195 E27.68104
G1 X138.099 Y163.497 E27.69783
G1 X130.322 Y165.896 E27.86317
G1 X129.517 Y166.079 E27.87994
G1 X121.459 Y167.293 E28.04549
G1 X120.637 Y167.355 E28.06223
G1 X112.498 Y167.355 E28.22758
G1 X111.676 Y167.293 E28.24433
G1 X103.618 Y166.079 E28.40988
G1 X102.812 Y165.896 E28.42667
G1 X95.034 Y163.496 E28.59203
G1 X94.267 Y163.194 E28.60878
G1 X86.929 Y159.66 E28.77424
G1 X86.215 Y159.248 E28.79099
G1 X79.487 Y154.663 E28.95639
G1 X78.841 Y154.148 E28.97317
G1 X72.868 Y148.605 E29.13872
G1 X72.307 Y148 E29.15548
G1 X67.23 Y141.633 E29.32091
G1 X66.765 Y140.952 E29.33767
G1 X62.695 Y133.902 E29.50304
G1 X62.338 Y133.158 E29.51981
G1 X59.363 Y125.577 E29.68525
G1 X59.119 Y124.789 E29.70201
G1 X57.307 Y116.851 E29.86742
G1 X57.184 Y116.036 E29.88417
G1 X56.575 Y107.915 E30.04961
G1 X56.575 Y107.089 E30.06639
G1 X57.184 Y98.964 E30.23192
G1 X57.308 Y98.148 E30.24869
G1 X59.121 Y90.21 E30.4141
G1 X59.363 Y89.423 E30.43083
G1 X62.337 Y81.842 E30.59627
G1 X62.695 Y81.098 E30.61304
G1 X66.765 Y74.048 E30.77842
G1 X67.23 Y73.367 E30.79517
G1 X72.307 Y67 E30.96061
G1 X72.868 Y66.395 E30.97737
G0 F3750 X73.195 Y66.747
G1 F1200 X79.168 Y61.204 E31.14291
G1 X79.758 Y60.733 E31.15825
G1 X86.486 Y56.148 E31.32365
G1 X87.137 Y55.772 E31.33893
G1 X94.475 Y52.237 E31.5044
G1 X95.177 Y51.962 E31.51971
G1 X102.955 Y49.563 E31.68507
G1 X103.689 Y49.395 E31.70037
G1 X111.747 Y48.181 E31.86592
G1 X112.498 Y48.125 E31.88122
G1 X120.637 Y48.125 E32.04656
G1 X121.388 Y48.181 E32.06186
G1 X129.446 Y49.395 E32.22741
G1 X130.181 Y49.563 E32.24273
G1 X137.958 Y51.963 E32.40807
G1 X138.659 Y52.238 E32.42337
G1 X145.997 Y55.772 E32.58883
G1 X146.648 Y56.148 E32.60411
G1 X153.376 Y60.733 E32.76951
G1 X153.966 Y61.203 E32.78483
G1 X159.938 Y66.744 E32.95034
G1 X160.451 Y67.297 E32.96566
G1 X165.528 Y73.665 E33.13111
G1 X165.952 Y74.287 E33.14641
G1 X170.023 Y81.338 E33.31181
G1 X170.349 Y82.016 E33.32709
G1 X173.325 Y89.597 E33.49255
G1 X173.548 Y90.317 E33.50786
G1 X175.36 Y98.253 E33.67323
G1 X175.472 Y98.999 E33.68856
G1 X176.08 Y107.122 E33.85404
G1 X176.08 Y107.874 E33.86932
G1 X175.472 Y115.999 E34.03484
G1 X175.359 Y116.745 E34.05017
G1 X173.546 Y124.683 E34.21559
G1 X173.325 Y125.402 E34.23087
G1 X170.35 Y132.983 E34.39631
G1 X170.023 Y133.662 E34.41162
G1 X165.953 Y140.712 E34.577
G1 X165.529 Y141.334 E34.59229
G1 X160.453 Y147.701 E34.75772
G1 X159.94 Y148.254 E34.77304
G1 X153.966 Y153.797 E34.9386
G1 X153.376 Y154.267 E34.95392
G1 X146.648 Y158.852 E35.11933
G1 X145.997 Y159.228 E35.1346
G1 X138.659 Y162.763 E35.30007
G1 X137.958 Y163.038 E35.31537
G1 X130.181 Y165.437 E35.48071
G1 X129.446 Y165.605 E35.49602
G1 X121.388 Y166.819 E35.66157
G1 X120.637 Y166.875 E35.67687
G1 X112.498 Y166.875 E35.84222
G1 X111.747 Y166.819 E35.85752
G1 X103.689 Y165.605 E36.02307
G1 X102.954 Y165.437 E36.03838
G1 X95.176 Y163.037 E36.20375
G1 X94.475 Y162.762 E36.21905
G1 X87.137 Y159.228 E36.38451
G1 X86.486 Y158.852 E36.39978
G1 X79.758 Y154.267 E36.56518
G1 X79.168 Y153.796 E36.58052
G1 X73.195 Y148.253 E36.74607
G1 X72.682 Y147.701 E36.76137
G1 X67.605 Y141.334 E36.92681
G1 X67.181 Y140.712 E36.9421
G1 X63.111 Y133.662 E37.10748
G1 X62.784 Y132.983 E37.12279
G1 X59.809 Y125.402 E37.28824
G1 X59.587 Y124.683 E37.30352
G1 X57.775 Y116.745 E37.46894
G1 X57.663 Y116 E37.48424
G1 X57.054 Y107.879 E37.64968
G1 X57.054 Y107.125 E37.665
G1 X57.663 Y99 E37.83053
G1 X57.776 Y98.255 E37.84584
G1 X59.589 Y90.317 E38.01125
G1 X59.81 Y89.598 E38.02653
G1 X62.784 Y82.017 E38.19197
G1 X63.111 Y81.338 E38.20728
G1 X67.181 Y74.288 E38.37266
G1 X67.605 Y73.666 E38.38795
G1 X72.682 Y67.299 E38.55339
G1 X73.195 Y66.747 E38.5687
G0 F3750 X73.521 Y67.099
G1 F1200 X79.494 Y61.556 E38.73424
G1 X80.028 Y61.13 E38.74812
G1 X86.756 Y56.545 E38.91352
G1 X87.345 Y56.205 E38.92734
G1 X94.683 Y52.67 E39.09281
G1 X95.318 Y52.421 E39.10667
G1 X103.096 Y50.022 E39.27202
G1 X103.761 Y49.87 E39.28588
G1 X111.819 Y48.656 E39.45143
G1 X112.498 Y48.605 E39.46526
G1 X120.637 Y48.605 E39.63061
G1 X121.316 Y48.656 E39.64444
G1 X129.374 Y49.87 E39.80999
G1 X130.04 Y50.022 E39.82387
G1 X137.817 Y52.422 E39.98922
G1 X138.451 Y52.671 E40.00305
G1 X145.789 Y56.205 E40.16852
G1 X146.378 Y56.545 E40.18233
G1 X153.106 Y61.13 E40.34774
G1 X153.64 Y61.555 E40.3616
G1 X159.612 Y67.096 E40.5271
G1 X160.076 Y67.596 E40.54096
G1 X165.153 Y73.964 E40.70641
G1 X165.536 Y74.527 E40.72025
G1 X169.607 Y81.578 E40.88565
G1 X169.903 Y82.192 E40.8995
G1 X172.879 Y89.773 E41.06495
G1 X173.08 Y90.424 E41.07879
G1 X174.892 Y98.36 E41.24416
G1 X174.993 Y99.035 E41.25803
G1 X175.601 Y107.158 E41.42351
G1 X175.601 Y107.838 E41.43733
G1 X174.993 Y115.963 E41.60285
G1 X174.892 Y116.638 E41.61672
G1 X173.079 Y124.576 E41.78213
G1 X172.878 Y125.227 E41.79597
G1 X169.903 Y132.808 E41.96142
G1 X169.607 Y133.422 E41.97527
G1 X165.537 Y140.472 E42.14065
G1 X165.154 Y141.035 E42.15448
G1 X160.078 Y147.402 E42.3199
G1 X159.614 Y147.902 E42.33376
G1 X153.64 Y153.445 E42.49932
G1 X153.106 Y153.87 E42.51318
G1 X146.378 Y158.455 E42.67859
G1 X145.789 Y158.795 E42.6924
G1 X138.451 Y162.33 E42.85787
G1 X137.816 Y162.579 E42.87173
G1 X130.039 Y164.978 E43.03707
G1 X129.374 Y165.13 E43.05093
G1 X121.316 Y166.344 E43.21648
G1 X120.637 Y166.395 E43.23031
G1 X112.498 Y166.395 E43.39566
G1 X111.819 Y166.344 E43.40949
G1 X103.761 Y165.13 E43.57504
G1 X103.096 Y164.978 E43.5889
G1 X95.318 Y162.578 E43.75426
G1 X94.683 Y162.329 E43.76812
G1 X87.345 Y158.795 E43.93358
G1 X86.756 Y158.455 E43.9474
G1 X80.028 Y153.87 E44.1128
G1 X79.494 Y153.444 E44.12668
G1 X73.521 Y147.901 E44.29222
G1 X73.058 Y147.402 E44.30605
G1 X67.981 Y141.035 E44.47149
G1 X67.597 Y140.472 E44.48533
G1 X63.527 Y133.422 E44.65071
G1 X63.231 Y132.808 E44.66456
G1 X60.256 Y125.227 E44.83
G1 X60.055 Y124.576 E44.84384
G1 X58.243 Y116.638 E45.00925
G1 X58.142 Y115.964 E45.0231
G1 X57.533 Y107.843 E45.18854
G1 X57.533 Y107.161 E45.2024
G1 X58.142 Y99.036 E45.36792
G1 X58.243 Y98.362 E45.38177
G1 X60.056 Y90.424 E45.54719
G1 X60.257 Y89.774 E45.56101
G1 X63.231 Y82.193 E45.72645
G1 X63.527 Y81.578 E45.74031
G1 X67.597 Y74.528 E45.90569
G1 X67.981 Y73.965 E45.91953
G1 X73.058 Y67.598 E46.08497
